Numix/16/status/indicator-keyboard-Ja-7.svg

<?xml version="1.0" encoding="UTF-8" standalone="no"?>
<svg
   xmlns:dc="http://purl.org/dc/elements/1.1/"
   xmlns:cc="http://creativecommons.org/ns#"
   xmlns:rdf="http://www.w3.org/1999/02/22-rdf-syntax-ns#"
   xmlns:svg="http://www.w3.org/2000/svg"
   xmlns="http://www.w3.org/2000/svg"
   xmlns:sodipodi="http://sodipodi.sourceforge.net/DTD/sodipodi-0.dtd"
   xmlns:inkscape="http://www.inkscape.org/namespaces/inkscape"
   viewBox="0 0 16 16"
   id="svg2"
   version="1.1"
   inkscape:version="0.91 r13725"
   sodipodi:docname="indicator-keyboard-Ja-7.svg">
  <metadata
     id="metadata14">
    <rdf:RDF>
      <cc:Work
         rdf:about="">
        <dc:format>image/svg+xml</dc:format>
        <dc:type
           rdf:resource="http://purl.org/dc/dcmitype/StillImage" />
      </cc:Work>
    </rdf:RDF>
  </metadata>
  <defs
     id="defs12" />
  <sodipodi:namedview
     pagecolor="#ffffff"
     bordercolor="#666666"
     borderopacity="1"
     objecttolerance="10"
     gridtolerance="10"
     guidetolerance="10"
     inkscape:pageopacity="0"
     inkscape:pageshadow="2"
     inkscape:window-width="640"
     inkscape:window-height="480"
     id="namedview10"
     showgrid="false"
     inkscape:zoom="14.75"
     inkscape:cx="8"
     inkscape:cy="8"
     inkscape:window-x="65"
     inkscape:window-y="24"
     inkscape:window-maximized="0"
     inkscape:current-layer="svg2" />
  <path
     style="fill:#ececec;fill-opacity:1"
     d="M 1.5996094 0 C 0.71320937 2.9605947e-16 0 0.71320937 0 1.5996094 L 0 14.400391 C 2.9605947e-16 15.286791 0.71320937 16 1.5996094 16 L 14.400391 16 C 15.286791 16 16 15.286791 16 14.400391 L 16 1.5996094 C 16 0.71320937 15.286791 0 14.400391 0 L 1.5996094 0 z M 5.0371094 4.859375 L 5.6484375 4.859375 L 5.6484375 9.1347656 C 5.6484375 9.4347656 5.6185938 9.7127031 5.5585938 9.9707031 C 5.4985938 10.222703 5.3941406 10.444719 5.2441406 10.636719 C 5.1001406 10.822719 4.9042031 10.970125 4.6582031 11.078125 C 4.4182031 11.180125 4.116 11.230469 3.75 11.230469 C 3.534 11.230469 3.33625 11.209969 3.15625 11.167969 C 2.97625 11.131969 2.8157344 11.087203 2.6777344 11.033203 C 2.5397344 10.979203 2.424125 10.921328 2.328125 10.861328 C 2.238125 10.801328 2.1690937 10.747219 2.1210938 10.699219 L 2.4082031 10.205078 C 2.4622031 10.253078 2.5274687 10.307187 2.6054688 10.367188 C 2.6894687 10.421187 2.7865313 10.471531 2.8945312 10.519531 C 3.0025313 10.567531 3.1219062 10.606719 3.2539062 10.636719 C 3.3859062 10.666719 3.5295469 10.681641 3.6855469 10.681641 C 4.1475469 10.681641 4.487125 10.562266 4.703125 10.322266 C 4.925125 10.076265 5.0371094 9.6583125 5.0371094 9.0703125 L 5.0371094 4.859375 z M 8.6113281 6.3359375 C 8.9173281 6.3359375 9.1767188 6.3807031 9.3867188 6.4707031 C 9.6027187 6.5547031 9.7762031 6.6740781 9.9082031 6.8300781 C 10.040203 6.9800781 10.135312 7.1591406 10.195312 7.3691406 C 10.255312 7.5791406 10.287109 7.8086875 10.287109 8.0546875 L 10.287109 10.988281 C 10.227109 11.006281 10.139391 11.026781 10.025391 11.050781 C 9.9113907 11.068781 9.7789063 11.089281 9.6289062 11.113281 C 9.4789062 11.137281 9.311 11.155969 9.125 11.167969 C 8.945 11.185969 8.7584062 11.195313 8.5664062 11.195312 C 8.3204063 11.195312 8.0928125 11.167281 7.8828125 11.113281 C 7.6788125 11.059281 7.49975 10.975328 7.34375 10.861328 C 7.19375 10.741328 7.0724219 10.592109 6.9824219 10.412109 C 6.8984219 10.226109 6.8574219 10.000328 6.8574219 9.7363281 C 6.8574219 9.4843281 6.9059531 9.2698437 7.0019531 9.0898438 C 7.0979531 8.9098438 7.23225 8.7624375 7.40625 8.6484375 C 7.58025 8.5284375 7.7873438 8.4407187 8.0273438 8.3867188 C 8.2673437 8.3327188 8.5285469 8.3066406 8.8105469 8.3066406 C 8.8945469 8.3066406 8.9803125 8.3122187 9.0703125 8.3242188 C 9.1663125 8.3302187 9.2577969 8.341375 9.3417969 8.359375 C 9.4317969 8.371375 9.5064062 8.3862969 9.5664062 8.4042969 C 9.6324062 8.4162969 9.6771719 8.4294063 9.7011719 8.4414062 L 9.7011719 8.1523438 C 9.7011719 7.9903437 9.6900156 7.8355469 9.6660156 7.6855469 C 9.6420156 7.5295469 9.5879063 7.3914844 9.5039062 7.2714844 C 9.4259062 7.1454844 9.3121094 7.0466094 9.1621094 6.9746094 C 9.0181094 6.8966094 8.8259375 6.8574219 8.5859375 6.8574219 C 8.2439375 6.8574219 7.9883125 6.8816875 7.8203125 6.9296875 C 7.6523125 6.9776875 7.5291719 7.016875 7.4511719 7.046875 L 7.3710938 6.5332031 C 7.4730937 6.4852031 7.6278906 6.4404375 7.8378906 6.3984375 C 8.0538906 6.3564375 8.3113281 6.3359375 8.6113281 6.3359375 z M 8.7929688 8.8105469 C 8.6489687 8.8105469 8.4977969 8.8217031 8.3417969 8.8457031 C 8.1857969 8.8637031 8.0421563 8.9084687 7.9101562 8.9804688 C 7.7781562 9.0464688 7.6699375 9.1397656 7.5859375 9.2597656 C 7.5019375 9.3797656 7.4609375 9.5383281 7.4609375 9.7363281 C 7.4609375 9.9103281 7.4870156 10.057734 7.5410156 10.177734 C 7.6010156 10.297734 7.6831563 10.394797 7.7851562 10.466797 C 7.8931562 10.538797 8.0181094 10.592906 8.1621094 10.628906 C 8.3121094 10.658906 8.4800156 10.673828 8.6660156 10.673828 C 8.8940156 10.673828 9.0917656 10.666297 9.2597656 10.654297 C 9.4337656 10.636297 9.5811719 10.615797 9.7011719 10.591797 L 9.7011719 8.953125 C 9.6351719 8.923125 9.5307188 8.8932812 9.3867188 8.8632812 C 9.2427187 8.8272812 9.0449688 8.8105469 8.7929688 8.8105469 z M 11.416016 8.8417969 L 13.878906 8.8417969 L 13.878906 9.1816406 C 13.746306 9.3415406 13.601306 9.5551188 13.441406 9.8242188 C 13.285406 10.089419 13.136494 10.391163 12.996094 10.726562 C 12.855694 11.058063 12.732253 11.410756 12.626953 11.785156 C 12.525553 12.159556 12.464806 12.529884 12.441406 12.896484 L 12.037109 12.896484 C 12.060509 12.572784 12.119291 12.229888 12.212891 11.867188 C 12.310391 11.504488 12.426 11.1518 12.5625 10.8125 C 12.7029 10.4732 12.853772 10.161653 13.013672 9.8769531 C 13.177472 9.5922532 13.336182 9.3649594 13.488281 9.1933594 L 11.416016 9.1933594 L 11.416016 8.8417969 z "
     id="path4" />
</svg>

<svg xmlns="http://www.w3.org/2000/svg" viewBox="0 0 16 16">
 <path d="m 1.6 0 c -0.886 0 -1.6 0.713 -1.6 1.6 l 0 12.801 c 0 0.886 0.713 1.6 1.6 1.6 l 12.801 0 c 0.886 0 1.6 -0.713 1.6 -1.6 l 0 -12.801 c 0 -0.886 -0.713 -1.6 -1.6 -1.6 l -12.801 0 z m 3.438 4.859 l 0.611 0 l 0 4.275 c 0 0.3 -0.03 0.578 -0.09 0.836 c -0.06 0.252 -0.164 0.474 -0.314 0.666 c -0.144 0.186 -0.34 0.333 -0.586 0.441 c -0.24 0.102 -0.542 0.152 -0.908 0.152 c -0.216 0 -0.414 -0.021 -0.594 -0.063 c -0.18 -0.036 -0.341 -0.081 -0.479 -0.135 c -0.138 -0.054 -0.254 -0.112 -0.35 -0.172 c -0.09 -0.06 -0.159 -0.114 -0.207 -0.162 l 0.287 -0.494 c 0.054 0.048 0.119 0.102 0.197 0.162 c 0.084 0.054 0.181 0.104 0.289 0.152 c 0.108 0.048 0.227 0.087 0.359 0.117 c 0.132 0.03 0.276 0.045 0.432 0.045 c 0.462 0 0.802 -0.119 1.018 -0.359 c 0.222 -0.246 0.334 -0.664 0.334 -1.252 l 0 -4.211 z m 3.574 1.477 c 0.306 0 0.565 0.045 0.775 0.135 c 0.216 0.084 0.389 0.203 0.521 0.359 c 0.132 0.15 0.227 0.329 0.287 0.539 c 0.06 0.21 0.092 0.44 0.092 0.686 l 0 2.934 c -0.06 0.018 -0.148 0.038 -0.262 0.063 c -0.114 0.018 -0.246 0.038 -0.396 0.063 c -0.15 0.024 -0.318 0.043 -0.504 0.055 c -0.18 0.018 -0.367 0.027 -0.559 0.027 c -0.246 0 -0.474 -0.028 -0.684 -0.082 c -0.204 -0.054 -0.383 -0.138 -0.539 -0.252 c -0.15 -0.12 -0.271 -0.269 -0.361 -0.449 c -0.084 -0.186 -0.125 -0.412 -0.125 -0.676 c 0 -0.252 0.049 -0.466 0.145 -0.646 c 0.096 -0.18 0.23 -0.327 0.404 -0.441 c 0.174 -0.12 0.381 -0.208 0.621 -0.262 c 0.24 -0.054 0.501 -0.08 0.783 -0.08 c 0.084 0 0.17 0.006 0.26 0.018 c 0.096 0.006 0.187 0.017 0.271 0.035 c 0.09 0.012 0.165 0.027 0.225 0.045 c 0.066 0.012 0.111 0.025 0.135 0.037 l 0 -0.289 c 0 -0.162 -0.011 -0.317 -0.035 -0.467 c -0.024 -0.156 -0.078 -0.294 -0.162 -0.414 c -0.078 -0.126 -0.192 -0.225 -0.342 -0.297 c -0.144 -0.078 -0.336 -0.117 -0.576 -0.117 c -0.342 0 -0.598 0.024 -0.766 0.072 c -0.168 0.048 -0.291 0.087 -0.369 0.117 l -0.08 -0.514 c 0.102 -0.048 0.257 -0.093 0.467 -0.135 c 0.216 -0.042 0.473 -0.063 0.773 -0.063 z m 0.182 2.475 c -0.144 0 -0.295 0.011 -0.451 0.035 c -0.156 0.018 -0.3 0.063 -0.432 0.135 c -0.132 0.066 -0.24 0.159 -0.324 0.279 c -0.084 0.12 -0.125 0.279 -0.125 0.477 c 0 0.174 0.026 0.321 0.08 0.441 c 0.06 0.12 0.142 0.217 0.244 0.289 c 0.108 0.072 0.233 0.126 0.377 0.162 c 0.15 0.03 0.318 0.045 0.504 0.045 c 0.228 0 0.426 -0.008 0.594 -0.02 c 0.174 -0.018 0.321 -0.038 0.441 -0.063 l 0 -1.639 c -0.066 -0.03 -0.17 -0.06 -0.314 -0.09 c -0.144 -0.036 -0.342 -0.053 -0.594 -0.053 z m 2.623 0.031 l 2.463 0 l 0 0.34 c -0.133 0.16 -0.278 0.373 -0.438 0.643 c -0.156 0.265 -0.305 0.567 -0.445 0.902 c -0.14 0.332 -0.264 0.684 -0.369 1.059 c -0.101 0.374 -0.162 0.745 -0.186 1.111 l -0.404 0 c 0.023 -0.324 0.082 -0.667 0.176 -1.029 c 0.097 -0.363 0.213 -0.715 0.35 -1.055 c 0.14 -0.339 0.291 -0.651 0.451 -0.936 c 0.164 -0.285 0.323 -0.512 0.475 -0.684 l -2.072 0 l 0 -0.352 z" style="fill:#ececec;fill-opacity:1"/>
</svg>
